icons/op-ticket-minus-24.svg

<svg width="24" height="24" viewBox="0 0 24 24" fill="none" xmlns="http://www.w3.org/2000/svg">
<path d="M14.0201 16.0938V14.75H19V16.0938H14.0201ZM17.3087 7.6875L13.613 4H5V20H17.34V17.2812H15.8993V18.5625H6.44072V5.4375H13.0179L15.8993 8.3125V13.5625H17.34V7.6875H17.3087Z" fill="black"/>
</svg>

<svg xmlns="http://www.w3.org/2000/svg" width="24" height="24" viewBox="0 0 24 24"><path d="M14.02 16.094V14.75H19v1.344h-4.98Zm3.289-8.406L13.613 4H5v16h12.34v-2.719h-1.441v1.281H6.441V5.438h6.577l2.881 2.874v5.25h1.441V7.688h-.031Z"/></svg>
